X: 2094
T: Athol Brose
R: strathspey
M: 4/4
K: Dmajor
F<D ~D2 A,<D ~D2|F>D D>A d>A B>G|F<D ~D2 A,>D F>D|E<G C>G c>A G>E|
F<D ~D2 A,<D ~D2|F>D D>A d>A B>G|F<D ~D2 A,>D F>D|E<G C>G c>A G>E||
D>d d>^c d>e d>c|A<d ~d2 f>d e>^c|d>e f<d e<^c d<B|=c>A G>=F E<C G>E|
D>d d>^c d>e d>c|A<d ~d2 f>d e>^c|d>e f<d e<^c d<B|=c>A G>=F E<C C>E||

